X: 519
T: Aaron's Key
R: jig
M: 6/8
K: Bminor
E|F2B Bcd|cAA ABc|dBB Bcd|edc BAG|
F2B Bcd|cAA ABc|dcd ede|fdB B2A|
F2B Bcd|cAA ABc|dBB Bcd|efe efg|
~f3 fed|cAA ABc|dcd ede|fdB B2||
|:c|d2A def|ecA a2g|~f3 fed|cde ABc|
BFB cBc|dcd ede|fed cBA|FBB B2:|

